-----BEGIN PGP SIGNATURE-----

iQFKBAABCgA0FiEEDiZCmYcAJBj5UT8qX7mZwtYv89kFAmn9GioWHG9wZW52b3hA
dm94cHVwdWxpLm9yZwAKCRBfuZnC1i/z2WEmB/wNaj6q7phKfnli+pZoNn/3TII3
62lLLHTsbGTI5M5iAWMXR030qbkgcCwfQqFLWozFdH0tN419KdzsJmPxgroKBLTX
AGuLZc7HxPMl495g06e5JXffUM0EePOCuU8tEPtNHlW+spcTNJ2YLV3DYlnYFkft
qXOPbYhOoxIl6C2H5DYuMASof0pFZJEuGPvMs5wUrM9Yv9f7FDjjHbL3XG6Pa1yq
sN/lPtWkEKmRmjnvSeYGVwj2mFeV2vEWfrhTXn4fFDEPEdEvE49R7WRpimf5yhkW
1cTQQOT+cge0nQ6BIZqU2nBs5SywGqh2QRBilfDxfnkyeqEJBx1+PMexrcxq
=SQ9D
-----END PGP SIGNATURE-----
